dist/assets/dashboard.svg

<svg width="20" height="21" viewBox="0 0 20 21" fill="none" xmlns="http://www.w3.org/2000/svg">
<g id="dashboard" clip-path="url(#clip0_0_867)">
<path id="Vector" d="M15.8333 4.66667V6.33333H12.5V4.66667H15.8333ZM7.5 4.66667V9.66667H4.16667V4.66667H7.5ZM15.8333 11.3333V16.3333H12.5V11.3333H15.8333ZM7.5 14.6667V16.3333H4.16667V14.6667H7.5ZM17.5 3H10.8333V8H17.5V3ZM9.16667 3H2.5V11.3333H9.16667V3ZM17.5 9.66667H10.8333V18H17.5V9.66667ZM9.16667 13H2.5V18H9.16667V13Z" fill="#1C4980"/>
</g>
<defs>
<clipPath id="clip0_0_867">
<rect width="20" height="20" fill="white" transform="translate(0 0.5)"/>
</clipPath>
</defs>
</svg>

<svg xmlns="http://www.w3.org/2000/svg" width="20" height="21" fill="none"><g clip-path="url(#a)"><path fill="#1C4980" d="M15.833 4.667v1.666H12.5V4.667h3.333Zm-8.333 0v5H4.167v-5H7.5Zm8.333 6.666v5H12.5v-5h3.333ZM7.5 14.667v1.666H4.167v-1.666H7.5ZM17.5 3h-6.667v5H17.5V3ZM9.167 3H2.5v8.333h6.667V3ZM17.5 9.667h-6.667V18H17.5V9.667ZM9.167 13H2.5v5h6.667v-5Z"/></g><defs><clipPath id="a"><path fill="#fff" d="M0 .5h20v20H0z"/></clipPath></defs></svg>
